assets/mocale_logo_color.svg

<svg width="565" height="565" viewBox="0 0 565 565" fill="none" xmlns="http://www.w3.org/2000/svg">
<path fill-rule="evenodd" clip-rule="evenodd" d="M307.501 0.960876C287.901 -0.252457 268.741 -0.639124 249.181 1.74754C184.541 8.84088 123.168 39.5475 78.3143 86.5475C44.621 121.548 20.261 165.601 8.36766 212.681C0.194322 244.974 -1.65901 278.401 1.36766 311.521C7.48766 373.201 34.9677 432.454 77.861 477.174C127.008 528.974 196.181 560.934 267.608 563.908C280.488 564.534 293.434 563.934 306.314 563.334C309.001 562.992 311.705 562.688 314.413 562.384C322.453 561.48 330.534 560.573 338.354 558.628C338.969 558.499 339.583 558.372 340.197 558.246C340.773 558.127 341.349 558.01 341.924 557.892L341.927 557.891L341.93 557.891L341.932 557.89L341.935 557.89L341.938 557.889C348.711 556.504 355.456 555.125 362.008 552.801C403.701 540.974 442.554 518.361 474.314 488.948C476.841 486.443 479.352 483.926 481.862 481.41L481.863 481.41L481.863 481.409C484.016 479.252 486.167 477.095 488.328 474.948C536.954 423.281 565.194 352.974 564.194 281.894C565.181 209.494 535.434 137.641 485.034 85.9075C455.208 54.7075 418.074 30.9475 377.514 16.2675C374.461 15.3535 371.437 14.3827 368.417 13.4135L368.417 13.4133C360.69 10.933 352.998 8.46395 344.954 6.98754C332.836 3.90887 320.538 2.47784 308.16 1.03761L307.501 0.960876ZM194.301 76.7875C229.635 57.9475 266.248 40.7742 304.155 27.7342C249.168 22.2809 193.315 36.1742 146.488 65.2275C110.515 87.9209 79.6879 119.748 59.1279 157.041C61.6213 155.254 64.0879 153.494 66.6879 151.868L66.7149 151.851L66.715 151.851C108.759 126.136 150.977 100.316 194.301 76.7875ZM364.101 40.1743C382.554 46.201 400.288 54.7343 416.741 65.0143C423.443 68.7179 429.406 73.2719 435.423 77.8668L435.423 77.8671C437.485 79.4422 439.554 81.0222 441.661 82.5743C449.594 89.041 457.128 96.0543 464.581 103.068C432.061 97.3076 398.514 96.6676 365.781 101.174C334.128 104.774 303.954 112.748 273.781 122.708C241.994 133.881 210.834 146.974 180.648 161.908C162.06 170.486 143.947 180.191 125.875 189.873L125.874 189.873C121.87 192.019 117.867 194.163 113.861 196.294C89.813 209.31 65.9192 222.606 42.024 235.903L42.0207 235.904L41.9889 235.922L41.9571 235.94L41.9254 235.957L41.8673 235.99C37.7145 238.301 33.5615 240.612 29.4077 242.921C29.9499 240.303 30.4536 237.677 30.9573 235.05L30.9574 235.05C31.9648 229.796 32.9722 224.543 34.2877 219.361C36.101 212.948 37.981 206.561 39.8744 200.174C96.5277 164.761 153.421 129.254 212.234 97.4943C257.061 74.0543 303.768 53.401 352.954 40.9743C353.815 40.8287 354.699 40.6267 355.593 40.4224C358.463 39.7662 361.437 39.0864 364.101 40.1743ZM530.941 223.374C523.928 192.747 510.701 163.721 493.248 137.641C447.808 122.854 398.195 121.867 351.368 130.187C334.221 133.254 317.461 136.814 300.875 142.254C280.568 148.094 260.661 155.734 241.155 163.827C186.688 186.442 136.7 214.037 85.3698 242.374C82.4672 243.976 79.5602 245.581 76.6479 247.187C71.9784 249.783 67.3131 252.386 62.6479 254.988C50.7284 261.638 38.8092 268.288 26.8213 274.814C26.2079 286.681 26.9146 298.987 28.1679 310.814C69.2079 290.494 110.941 270.081 152.568 251.214C196.501 231.481 242.328 213.814 289.128 202.227C340.208 189.907 392.155 185.374 444.195 194.467C474.328 199.921 503.621 209.521 530.941 223.374ZM419.768 218.001C459.981 222.094 499.314 235.374 534.368 255.374C536.599 256.354 536.705 258.011 536.828 259.92C536.869 260.555 536.911 261.218 537.034 261.894C538.541 282.707 537.874 303.907 534.274 324.481C496.394 302.907 455.194 287.974 411.834 282.507C360.194 275.307 307.141 280.774 256.741 293.267C209.088 304.734 163.994 321.387 118.754 339.961C93.3009 350.374 67.9143 360.987 42.6743 371.921C38.6609 360.881 35.4476 349.521 32.6343 338.121C46.0685 331.674 59.4441 325.154 72.8141 318.638L72.8144 318.638L72.8147 318.638L72.815 318.637C101.695 304.561 130.549 290.498 159.914 277.201C207.034 255.881 256.994 236.467 307.594 225.401C344.528 217.374 382.074 214.161 419.768 218.001ZM528.061 351.761C490.674 329.441 449.861 313.961 406.501 308.694C348.554 300.987 290.181 310.454 234.528 326.787C201.301 336.334 169.221 348.441 137.141 361.254C109.061 372.747 81.0477 384.387 53.1943 396.427C59.181 407.787 65.6477 418.761 72.9277 429.347C84.9799 424.737 97.2125 420.574 109.439 416.412L109.441 416.411C113.161 415.145 116.881 413.879 120.594 412.601C178.474 393.081 239.754 375.521 300.768 370.081C358.354 364.921 416.434 371.401 470.434 392.574C482.061 397.094 493.448 402.334 504.528 408.067C514.568 390.401 522.754 371.401 528.061 351.761ZM426.248 406.268C448.341 411.961 469.888 420.534 490.314 430.681C477.408 448.121 462.888 464.148 446.221 478.054C406.368 462.854 363.421 455.321 320.835 454.494C254.821 452.948 188.688 467.521 125.115 483.948C112.328 474.321 101.088 463.081 90.3545 451.254C152.048 429.854 213.274 408.841 278.248 399.574C327.141 392.254 378.354 393.361 426.248 406.268ZM352.261 527.867C376.234 520.907 399.208 510.907 420.168 497.281C378.034 483.787 334.128 479.347 290.034 481.507C244.581 484.027 199.021 492.907 154.941 504.014C182.594 519.881 213.381 530.441 244.914 535.134C271.034 538.894 297.834 538.401 323.874 534.227C330.506 533.368 337.055 531.69 343.582 530.018C346.477 529.276 349.368 528.535 352.261 527.867Z" fill="url(#paint0_linear_107_392)"/>
<defs>
<linearGradient id="paint0_linear_107_392" x1="282.11" y1="0" x2="282.11" y2="564.174" gradientUnits="userSpaceOnUse">
<stop stop-color="#FECA51"/>
<stop offset="1" stop-color="#FB828B"/>
</linearGradient>
</defs>
</svg>

<svg xmlns="http://www.w3.org/2000/svg" width="565" height="565" fill="none">
  <path fill="url(#a)" fill-rule="evenodd" d="M307.501.96c-19.6-1.212-38.76-1.6-58.32.788-64.64 7.093-126.013 37.8-170.867 84.8-33.693 35-58.053 79.053-69.946 126.133-8.174 32.293-10.027 65.72-7 98.84 6.12 61.68 33.6 120.933 76.493 165.653 49.147 51.8 118.32 83.76 189.747 86.734 12.88.626 25.826.026 38.706-.574 2.687-.342 5.391-.646 8.099-.95 8.04-.904 16.121-1.811 23.941-3.756a431.82 431.82 0 0 1 1.843-.382l1.727-.354.003-.001h.003l.002-.001h.003l.003-.001c6.773-1.385 13.518-2.764 20.07-5.088 41.693-11.827 80.546-34.44 112.306-63.853 2.527-2.505 5.038-5.022 7.548-7.538h.001v-.001c2.153-2.157 4.304-4.314 6.465-6.461 48.626-51.667 76.866-121.974 75.866-193.054.987-72.4-28.76-144.253-79.16-195.987-29.826-31.2-66.96-54.96-107.52-69.64-3.053-.913-6.077-1.884-9.097-2.853-7.727-2.481-15.419-4.95-23.463-6.426-12.118-3.08-24.416-4.51-36.794-5.95l-.659-.077Zm-113.2 75.828c35.334-18.84 71.947-36.014 109.854-49.054-54.987-5.453-110.84 8.44-157.667 37.494-35.973 22.693-66.8 54.52-87.36 91.813 2.493-1.787 4.96-3.547 7.56-5.173l.027-.017c42.044-25.715 84.262-51.535 127.586-75.064Zm169.8-36.614c18.453 6.027 36.187 14.56 52.64 24.84 6.702 3.704 12.665 8.258 18.682 12.853a447.753 447.753 0 0 0 6.238 4.707c7.933 6.467 15.467 13.48 22.92 20.494-32.52-5.76-66.067-6.4-98.8-1.894-31.653 3.6-61.827 11.574-92 21.534-31.787 11.173-62.947 24.266-93.133 39.2-18.588 8.578-36.701 18.283-54.773 27.965h-.001a4364.15 4364.15 0 0 1-12.013 6.421c-24.048 13.016-47.942 26.312-71.837 39.609l-.003.001-.032.018-.032.018-.032.017-.058.033c-4.152 2.311-8.305 4.622-12.46 6.931a542.894 542.894 0 0 0 1.55-7.871c1.008-5.254 2.015-10.507 3.33-15.689 1.814-6.413 3.694-12.8 5.587-19.187 56.654-35.413 113.547-70.92 172.36-102.68 44.827-23.44 91.534-44.093 140.72-56.52.861-.145 1.745-.347 2.639-.552 2.87-.656 5.844-1.336 8.508-.248Zm166.84 183.2c-7.013-30.627-20.24-59.653-37.693-85.733-45.44-14.787-95.053-15.774-141.88-7.454-17.147 3.067-33.907 6.627-50.493 12.067-20.307 5.84-40.214 13.48-59.72 21.573-54.467 22.615-104.455 50.21-155.785 78.547l-8.722 4.813c-4.67 2.596-9.335 5.199-14 7.801-11.92 6.65-23.839 13.3-35.827 19.826-.613 11.867.094 24.173 1.347 36 41.04-20.32 82.773-40.733 124.4-59.6 43.933-19.733 89.76-37.4 136.56-48.987 51.08-12.32 103.027-16.853 155.067-7.76 30.133 5.454 59.426 15.054 86.746 28.907Zm-111.173-5.373c40.213 4.093 79.546 17.373 114.6 37.373 2.231.98 2.337 2.637 2.46 4.546.041.635.083 1.298.206 1.974 1.507 20.813.84 42.013-2.76 62.587-37.88-21.574-79.08-36.507-122.44-41.974-51.64-7.2-104.693-1.733-155.093 10.76-47.653 11.467-92.747 28.12-137.987 46.694-25.453 10.413-50.84 21.026-76.08 31.96-4.013-11.04-7.226-22.4-10.04-33.8 13.434-6.447 26.81-12.967 40.18-19.483l.001-.001c28.88-14.076 57.734-28.139 87.099-41.436 47.12-21.32 97.08-40.734 147.68-51.8 36.934-8.027 74.48-11.24 112.174-7.4Zm108.293 133.76c-37.387-22.32-78.2-37.8-121.56-43.067-57.947-7.707-116.32 1.76-171.973 18.093-33.227 9.547-65.307 21.654-97.387 34.467-28.08 11.493-56.093 23.133-83.947 35.173 5.987 11.36 12.454 22.334 19.734 32.92 12.052-4.61 24.285-8.773 36.511-12.935l.002-.001c3.72-1.266 7.44-2.532 11.153-3.81 57.88-19.52 119.16-37.08 180.174-42.52 57.586-5.16 115.666 1.32 169.666 22.493 11.627 4.52 23.014 9.76 34.094 15.493 10.04-17.666 18.226-36.666 23.533-56.306Zm-101.813 54.507c22.093 5.693 43.64 14.266 64.066 24.413-12.906 17.44-27.426 33.467-44.093 47.373-39.853-15.2-82.8-22.733-125.386-23.56-66.014-1.546-132.147 13.027-195.72 29.454-12.787-9.627-24.027-20.867-34.76-32.694 61.693-21.4 122.919-42.413 187.893-51.68 48.893-7.32 100.106-6.213 148 6.694Zm-73.987 121.599c23.973-6.96 46.947-16.96 67.907-30.586-42.134-13.494-86.04-17.934-130.134-15.774-45.453 2.52-91.013 11.4-135.093 22.507 27.653 15.867 58.44 26.427 89.973 31.12 26.12 3.76 52.92 3.267 78.96-.907 6.632-.859 13.181-2.537 19.708-4.209 2.895-.742 5.786-1.483 8.679-2.151Z" clip-rule="evenodd"/>
  <defs>
    <linearGradient id="a" x1="282.11" x2="282.11" y1="0" y2="564.174" gradientUnits="userSpaceOnUse">
      <stop stop-color="#FECA51"/>
      <stop offset="1" stop-color="#FB828B"/>
    </linearGradient>
  </defs>
</svg>
